!!!ONB: MCCC : IJH0464_02 : Extracted Monophonic Melody
!!!COM: Haydn, Joseph
!!!OPR: String Quartet in G major
!!!OMV: 2
!!!SCT: Hob.III:66 ; Op.64 No.4
!!!ODT: 1790///
**kern
*thru
*k[f#]
*G:
*clefF
*M3/4
8dd
8b
=1
8f#
8g
4d
8bb
8gg
=2
8ff#
8aa
4cc
8a
8cc
=3
16cc
16b
8r
16dd
16cc
8r
16ee
16cc
8r
=4
2a
4d
=5
2g
8b
8g#
=6
8b
8a
4cc
8cc
8b
=7
4a
8a
8g
8a
8d
=8
4g
2r
=9
2r
4ff#
=10
8gg
8aa
8bb
8aa
8gg
8ff#
=11
4ee
8ee
8dd
8ee
8a
=12
2dd
8fff#
8ddd
=13
8ccc#
8eee
8ggg
8eee
8ccc#
8eee
=14
4ddd
4aa
8fff#
8ddd
=15
8ccc#
8eee
8ggg
8eee
8ccc#
8eee
=16
2ddd
8eee
8ccc#
=17
2ddd
8eee
8bb
=18
2ccc
8ddd
8aa
=19
8ccc
8bb
8ddd
8bb
8aa
8gg
=20
8gg
8ff#
8aa
8ff#
8dd
8cc
=21
8b
8dd
8gg
8dd
8b
8g
=22
8d
8f#
8a
8f#
8d
8c
=23
8B
8d
8g
8d
8B
8G
=24
4d
4r
8dd
8b
=25
8f#
8g
4d
8bb
8gg
=26
8ff#
8aa
4cc
8a
8cc
=27
16cc
16b
8r
16dd
16cc
8r
16ee
16cc
8r
=28
2a
4d
=29
2g
8b
8g#
=30
8b
8a
4cc
8cc
8b
=31
4a
8a
8g
8a
8d
=32
4g
4r
8bb
8gg
=33
8dd
8b
8g
8d
8b
8g
=34
8e
8g
8cc
8e
8d
8b
=35
8c
8b
8a
8ff#
8gg
8dd
=36
8cc
8dd
8cc
8a
8b
8g
=37
8d
8ff#
8d
8dd
8bb
8gg
=38
8dd
8b
8g
8d
8b
8g
=39
8e
8g
8cc
8e
8d
8b
=40
8c
8b
8a
8ff#
8gg
8dd
=41
8cc
8ee
8dd
8b
8cc
8a
=42
8g
8gg
8g
8r
8dd
8ddd
=43
8ee
8ddd
8dd
8ddd
8ff#
8ddd
=44
8bb
8gg
8dd
8b
8g
8gg
=45
8a
8gg
8g
8gg
8b
8gg
=46
8ee
8cc
8g
8gg
8ee
8cc
=47
8dd
8b
8g
8gg
8dd
8b
=48
8dd
8cc
8a
8cc
8b
8g
=49
8d
8dd
8ff#
8dd
8aa
8ff#
=50
8dd
8ddd
8dd
8ddd
8bb
8gg
=51
8dd
8b
8g
8d
8b
8g
=52
8e
8g
8cc
8e
8d
8b
=53
8c
8b
8a
8ff#
8gg
8dd
=54
8cc
8dd
8cc
8a
8b
8g
=55
8d
8ff#
8d
8dd
8bb
8gg
=56
8dd
8b
8g
8d
8b
8g
=57
8e
8g
8cc
8e
8d
8b
=58
8c
8b
8a
8ff#
8gg
8dd
=59
8cc
8ee
8dd
8b
8cc
8a
=60
8g
8gg
8g
4.r
==
*-
